X:1
T:Title
%%score { ( 1 2 ) | ( 3 4 ) }
L:1/8
Q:1/4=108
M:4/4
K:F
V:1 treble nm="Grand Piano"
V:2 treble 
V:3 bass 
V:4 bass 
V:1
 F3 G F2 D2 | [B,F]4 E2 E2 | G3 A G2 C2 | [F,CF]8 | [F,CF]2 [CG]2 [CA]2 [Cc]2 | %5
w: Grace~W.~Conant * * *|||||
 [Cc]4 [CG]2[K:bass] [G,CE]2 | [F,CD]2[K:treble] [CE]2 [CF]2 [=B,G]2 | G8 | F4 z4 | [B,F]4 [B,E]4 | %10
w: |||||
 G3 A G2 C2 | [^CA]8 | d2 c2 B2 A2 | A2- [=B,FA]2 G2- [FG]2 | [B,Ec]2 [FB]2 [EA]2 [B,EG]2 | %15
w: |||||
 [A,CF]8 |] %16
w: |
V:2
 A,4 z4 | x8 | x8 | x8 | x8 | x6[K:bass] x2 | x2[K:treble] x6 | z4 B,4 | A,3- [A,G] [A,F]2 [A,D]2 | %9
 x8 | x8 | z4 A,4 | x8 | [=B,F]2 z2 [B,F]2 z2 | x8 | x8 |] %16
V:3
 C,4 [C,A,]2 [C,A,]2 | C,4 [C,B,]4 | [E,C]4 [E,C]2 E,2 | A,,8 | A,,2 [G,,E,]2 [F,,F,]2 [^F,,_E,]2 | %5
 [G,,E,]4 [G,,E,]2 G,,2 | z2 E,2 [G,,D,]2 [G,,F,]2 | C4 z4 | [F,,C,]4 [F,,C,]2 [F,,C,]2 | %9
 [G,,C,]4 [G,,C,]4 | [B,,E,C]4 [B,,E,C]2 [B,,E,]2 | [A,,E,]4 z4 | %12
 [^F,D]2[K:treble] [A,D]2 [D^F]2 [CF]2 | z4 G,4 | z2 D2 C2 C,2 | F,8 |] %16
V:4
 F,,8 | G,,8 | B,,8 | x8 | x8 | x8 | G,,4 z4 | [C,E,]8 | x8 | x8 | x8 | x8 | D,8[K:treble] | %13
 G,,2 D,2 z2 =B,2 | C,6 z2 | x8 |] %16

